Obsidian-SemiLight/actions/22s/kt-magnet.svg

<svg viewBox="0 0 22 22" xmlns="http://www.w3.org/2000/svg"><path d="m11 3a8 8.0000086 0 0 0 -8 8 8 8.0000086 0 0 0 8 8h4v-3h-4a5 5 0 0 1 -5-5 5 5 0 0 1 5-5h4v-3zm5 0v3h3v-3zm0 13v3h3v-3z" fill="#4d4d4d"/></svg>

<svg xmlns="http://www.w3.org/2000/svg" viewBox="0 0 22 22">
  <defs id="defs3051">
    <style type="text/css" id="current-color-scheme">
      .ColorScheme-Text {
        color:#4d4d4d;
      }
      </style>
  </defs>
 <path 
     style="fill:currentColor;fill-opacity:1;stroke:none" 
     d="M 11 3 A 8 8.0000086 0 0 0 3 11 A 8 8.0000086 0 0 0 11 19 L 15 19 L 15 16 L 11 16 A 5 5 0 0 1 6 11 A 5 5 0 0 1 11 6 L 15 6 L 15 3 L 11 3 z M 16 3 L 16 6 L 19 6 L 19 3 L 16 3 z M 16 16 L 16 19 L 19 19 L 19 16 L 16 16 z "
     class="ColorScheme-Text"
     />
</svg>
